; G-Code generated by Simplify3D(R) Version 4.1.2
; Jan 24, 2020 at 9:14:55 PM
; Settings Summary
;   processName,Process1
;   applyToModels,seal
;   profileName,Velleman K8400 Dual (modified)
;   profileVersion,2020-01-09 22:18:07
;   baseProfile,Velleman K8400 Dual(2)
;   printMaterial,PLA
;   printQuality,Medium
;   printExtruders,Right Extruder Only
;   extruderName,Right Extruder,Left Extruder
;   extruderToolheadNumber,0,1
;   extruderDiameter,0.35,0.35
;   extruderAutoWidth,0,0
;   extruderWidth,0.35,0.35
;   extrusionMultiplier,0.9,1
;   extruderUseRetract,1,1
;   extruderRetractionDistance,5,3.3
;   extruderExtraRestartDistance,0,0
;   extruderRetractionZLift,0,0.5
;   extruderRetractionSpeed,2100,2100
;   extruderUseCoasting,0,0
;   extruderCoastingDistance,0.2,0.2
;   extruderUseWipe,1,1
;   extruderWipeDistance,5,5
;   primaryExtruder,0
;   layerHeight,0.15
;   topSolidLayers,3
;   bottomSolidLayers,3
;   perimeterOutlines,3
;   printPerimetersInsideOut,1
;   startPointOption,2
;   startPointOriginX,0
;   startPointOriginY,0
;   sequentialIslands,0
;   spiralVaseMode,0
;   firstLayerHeightPercentage,90
;   firstLayerWidthPercentage,90
;   firstLayerUnderspeed,0.35
;   useRaft,0
;   raftExtruder,0
;   raftTopLayers,3
;   raftBaseLayers,2
;   raftOffset,3
;   raftSeparationDistance,0.2
;   raftTopInfill,100
;   aboveRaftSpeedMultiplier,0.3
;   useSkirt,1
;   skirtExtruder,0
;   skirtLayers,1
;   skirtOutlines,4
;   skirtOffset,4
;   usePrimePillar,0
;   primePillarExtruder,999
;   primePillarWidth,10
;   primePillarLocation,7
;   primePillarSpeedMultiplier,1
;   useOozeShield,0
;   oozeShieldExtruder,0
;   oozeShieldOffset,8
;   oozeShieldOutlines,1
;   oozeShieldSidewallShape,1
;   oozeShieldSidewallAngle,30
;   oozeShieldSpeedMultiplier,1
;   infillExtruder,0
;   internalInfillPattern,Rectilinear
;   externalInfillPattern,Rectilinear
;   infillPercentage,15
;   outlineOverlapPercentage,18
;   infillExtrusionWidthPercentage,130
;   minInfillLength,5
;   infillLayerInterval,1
;   internalInfillAngles,45,-45
;   overlapInternalInfillAngles,0
;   externalInfillAngles,45,-45
;   generateSupport,0
;   supportExtruder,0
;   supportInfillPercentage,30
;   supportExtraInflation,0.4
;   supportBaseLayers,0
;   denseSupportExtruder,0
;   denseSupportLayers,2
;   denseSupportInfillPercentage,60
;   supportLayerInterval,1
;   supportHorizontalPartOffset,0.3
;   supportUpperSeparationLayers,1
;   supportLowerSeparationLayers,1
;   supportType,0
;   supportGridSpacing,2.5
;   maxOverhangAngle,40
;   supportAngles,0
;   temperatureName,Right Extruder Temperature,Left Extruder Temperature
;   temperatureNumber,0,1
;   temperatureSetpointCount,2,1
;   temperatureSetpointLayers,1,2,1
;   temperatureSetpointTemperatures,205,195,0
;   temperatureStabilizeAtStartup,1,0
;   temperatureHeatedBed,0,0
;   fanLayers,1,2,3,4,5
;   fanSpeeds,0,20,40,60,85
;   blipFanToFullPower,1
;   adjustSpeedForCooling,1
;   minSpeedLayerTime,15
;   minCoolingSpeedSlowdown,20
;   increaseFanForCooling,1
;   minFanLayerTime,45
;   maxCoolingFanSpeed,100
;   increaseFanForBridging,1
;   bridgingFanSpeed,100
;   use5D,1
;   relativeEdistances,0
;   allowEaxisZeroing,1
;   independentExtruderAxes,0
;   includeM10123,0
;   stickySupport,1
;   applyToolheadOffsets,0
;   gcodeXoffset,0
;   gcodeYoffset,0
;   gcodeZoffset,0
;   overrideMachineDefinition,1
;   machineTypeOverride,0
;   strokeXoverride,180
;   strokeYoverride,200
;   strokeZoverride,190
;   originOffsetXoverride,0
;   originOffsetYoverride,0
;   originOffsetZoverride,0
;   homeXdirOverride,-1
;   homeYdirOverride,-1
;   homeZdirOverride,-1
;   flipXoverride,1
;   flipYoverride,-1
;   flipZoverride,1
;   toolheadOffsets,0,0|24.5,0|0,0|0,0|0,0|0,0
;   overrideFirmwareConfiguration,1
;   firmwareTypeOverride,RepRap (Marlin/Repetier/Sprinter)
;   GPXconfigOverride,r2
;   baudRateOverride,250000
;   overridePrinterModels,1
;   printerModelsOverride
;   startingGcode,G28 ; home all axes,M218 X0 Y0 T0 ; tool 0 offset,M218 X-24.5 Y0 T1 ; tool 1 offset,M117 MaxWasHere!
;   layerChangeGcode,
;   retractionGcode,
;   toolChangeGcode,
;   endingGcode,G1 X90 Y100 Z185 ; move to,M104 S0 T0 ; turn off right extruder,M104 S0 T1 ; turn off left extruder,M140 S0 ; turn off bed,M84 ; disable motors
;   exportFileFormat,gcode
;   celebration,0
;   celebrationSong,Random Song
;   postProcessing,
;   defaultSpeed,4200
;   outlineUnderspeed,0.7
;   solidInfillUnderspeed,1.1
;   supportUnderspeed,0.65
;   rapidXYspeed,6000
;   rapidZspeed,3000
;   minBridgingArea,5
;   bridgingExtraInflation,1
;   bridgingExtrusionMultiplier,1
;   bridgingSpeedMultiplier,0.1
;   useFixedBridgingAngle,0
;   fixedBridgingAngle,0
;   applyBridgingToPerimeters,0
;   filamentDiameters,1.75|1.75|1.75|1.75|1.75|1.75
;   filamentPricesPerKg,46|46|46|46|46|46
;   filamentDensities,1.25|1.25|1.25|1.25|1.25|1.25
;   useMinPrintHeight,0
;   minPrintHeight,42.53
;   useMaxPrintHeight,0
;   maxPrintHeight,26
;   useDiaphragm,0
;   diaphragmLayerInterval,20
;   robustSlicing,1
;   mergeAllIntoSolid,0
;   onlyRetractWhenCrossingOutline,1
;   retractBetweenLayers,1
;   useRetractionMinTravel,0
;   retractionMinTravel,3
;   retractWhileWiping,1
;   onlyWipeOutlines,1
;   avoidCrossingOutline,0
;   maxMovementDetourFactor,3
;   toolChangeRetractionDistance,12
;   toolChangeExtraRestartDistance,0
;   toolChangeRetractionSpeed,600
;   externalThinWallType,0
;   internalThinWallType,2
;   thinWallAllowedOverlapPercentage,10
;   singleExtrusionMinLength,0.5
;   singleExtrusionMinPrintingWidthPercentage,50
;   singleExtrusionMaxPrintingWidthPercentage,200
;   singleExtrusionEndpointExtension,0.2
;   horizontalSizeCompensation,0
G90
M82
M106 S0
M104 S205 T0
M104 S0 T1
M109 S205 T0
G28 ; home all axes
M218 X0 Y0 T0 ; tool 0 offset
M218 X-24.5 Y0 T1 ; tool 1 offset
M117 MaxWasHere!
; process Process1
; layer 1, Z = 0.135
T0
G92 E0.0000
G1 E-5.0000 F2100
; feature skirt
; tool H0.135 W0.315
G1 Z0.135 F3000
G1 X44.764 Y86.809 F6000
G1 E0.0000 F2100
G92 E0.0000
G1 X47.250 Y86.710 E0.0396 F1470
G1 X48.491 Y86.972 E0.0598
G1 X58.001 Y91.623 E0.2282
G1 X58.254 Y91.685 E0.2324
G1 X59.188 Y92.123 E0.2488
G1 X63.854 Y95.602 E0.3414
G1 X67.909 Y98.456 E0.4203
G1 X70.433 Y97.883 E0.4615
G1 X74.023 Y96.137 E0.5250
G1 X75.069 Y95.879 E0.5421
G1 X78.162 Y95.780 E0.5914
G1 X83.111 Y93.157 E0.6805
G1 X83.129 Y93.111 E0.6813
G1 X79.963 Y86.974 E0.7912
G1 X79.906 Y86.858 E0.7932
G1 X78.935 Y84.714 E0.8307
G1 X79.425 Y81.678 E0.8796
G1 X84.415 Y76.271 E0.9967
G1 X84.848 Y75.896 E1.0058
G1 X86.152 Y75.001 E1.0310
G1 X86.590 Y74.760 E1.0389
G1 X95.224 Y71.055 E1.1884
G1 X95.832 Y70.879 E1.1985
G1 X96.834 Y70.720 E1.2146
G1 X97.564 Y70.710 E1.2262
G1 X103.443 Y71.467 E1.3206
G1 X104.239 Y71.705 E1.3338
G1 X111.197 Y75.092 E1.4569
G1 X112.466 Y76.423 E1.4862
G1 X112.480 Y76.457 E1.4868
G1 X114.779 Y78.306 E1.5337
G1 X115.164 Y78.462 E1.5403
G1 X115.868 Y78.887 E1.5534
G1 X117.923 Y80.636 E1.5963
G1 X122.182 Y80.704 E1.6641
G1 X122.602 Y80.700 E1.6708
G1 X127.450 Y79.335 E1.7509
G1 X129.932 Y79.873 E1.7913
G1 X130.522 Y80.371 E1.8036
G1 X133.258 Y81.675 E1.8519
G1 X134.466 Y82.852 E1.8787
G1 X135.227 Y84.345 E1.9054
G1 X135.508 Y85.470 E1.9238
G1 X135.605 Y90.682 E2.0068
G1 X137.811 Y99.673 E2.1541
G1 X137.851 Y99.870 E2.1573
G1 X137.938 Y100.401 E2.1658
G1 X137.971 Y100.789 E2.1720
G1 X137.977 Y101.407 E2.1819
G1 X139.475 Y110.676 E2.3312
G1 X142.120 Y118.521 E2.4630
G1 X142.246 Y119.554 E2.4795
G1 X142.113 Y121.187 E2.5056
G1 X141.645 Y122.474 E2.5274
G1 X141.042 Y123.328 E2.5440
G1 X140.987 Y123.403 E2.5455
G1 X135.309 Y130.845 E2.6945
G1 X134.343 Y131.622 E2.7142
G1 X127.357 Y134.871 E2.8368
G1 X126.553 Y135.095 E2.8501
G1 X125.467 Y135.214 E2.8675
G1 X124.739 Y135.189 E2.8791
G1 X116.091 Y133.646 E3.0188
G1 X114.939 Y133.127 E3.0389
G1 X111.360 Y130.293 E3.1116
G1 X107.844 Y130.615 E3.1677
G1 X107.204 Y130.821 E3.1784
G1 X106.114 Y130.928 E3.1959
G1 X104.082 Y130.692 E3.2284
G1 X87.817 Y129.504 E3.4879
G1 X87.188 Y129.377 E3.4981
G1 X75.998 Y125.616 E3.6860
G1 X75.488 Y125.485 E3.6943
G1 X75.470 Y125.481 E3.6946
G1 X71.491 Y125.277 E3.7580
G1 X65.717 Y125.849 E3.8504
G1 X61.725 Y127.617 E3.9198
G1 X61.210 Y127.783 E3.9284
G1 X54.402 Y129.197 E4.0391
G1 X53.916 Y129.250 E4.0469
G1 X53.774 Y129.252 E4.0491
G1 X51.478 Y129.956 E4.0873
G1 X50.593 Y130.066 E4.1015
G1 X45.286 Y129.794 E4.1861
G1 X44.531 Y129.640 E4.1983
G1 X43.456 Y129.244 E4.2166
G1 X42.859 Y128.930 E4.2273
G1 X39.058 Y126.235 E4.3014
G1 X34.241 Y123.290 E4.3913
G1 X32.940 Y120.996 E4.4332
G1 X32.878 Y115.156 E4.5262
G1 X33.431 Y113.517 E4.5537
G1 X37.445 Y108.353 E4.6578
G1 X37.997 Y107.827 E4.6699
G1 X38.926 Y107.176 E4.6879
G1 X40.850 Y105.444 E4.7291
G1 X37.880 Y99.112 E4.8404
G1 X37.790 Y98.894 E4.8442
G1 X37.191 Y97.232 E4.8723
G1 X37.581 Y94.671 E4.9135
G1 X42.735 Y87.868 E5.0493
G1 X44.764 Y86.809 E5.0857
G92 E0.0000
G1 E-5.0000 F2100
G1 X44.847 Y87.121 F6000
G1 E0.0000 F2100
G92 E0.0000
G1 X47.223 Y87.027 E0.0378 F1470
G1 X48.387 Y87.272 E0.0568
G1 X57.868 Y91.909 E0.2247
G1 X57.895 Y91.922 E0.2252
G1 X58.149 Y91.983 E0.2293
G1 X59.025 Y92.395 E0.2447
G1 X63.669 Y95.857 E0.3369
G1 X67.842 Y98.794 E0.4181
G1 X70.538 Y98.182 E0.4621
G1 X74.131 Y96.435 E0.5257
G1 X75.113 Y96.192 E0.5417
G1 X78.245 Y96.093 E0.5916
G1 X83.362 Y93.381 E0.6838
G1 X83.474 Y93.092 E0.6887
G1 X80.245 Y86.833 E0.8008
G1 X80.192 Y86.724 E0.8027
G1 X79.261 Y84.670 E0.8386
G1 X79.721 Y81.822 E0.8845
G1 X84.635 Y76.497 E0.9998
G1 X85.041 Y76.146 E1.0083
G1 X86.317 Y75.270 E1.0329
G1 X86.729 Y75.043 E1.0404
G1 X95.330 Y71.352 E1.1894
G1 X95.901 Y71.187 E1.1988
G1 X96.861 Y71.035 E1.2143
G1 X97.546 Y71.025 E1.2252
G1 X103.378 Y71.776 E1.3187
G1 X104.124 Y71.999 E1.3311
G1 X111.009 Y75.350 E1.4530
G1 X112.199 Y76.599 E1.4804
G1 X112.222 Y76.653 E1.4813
G1 X114.618 Y78.581 E1.5303
G1 X115.023 Y78.744 E1.5372
G1 X115.683 Y79.144 E1.5495
G1 X117.805 Y80.949 E1.5938
G1 X122.181 Y81.019 E1.6635
G1 X122.647 Y81.015 E1.6709
G1 X127.460 Y79.660 E1.7504
G1 X129.788 Y80.164 E1.7884
G1 X130.350 Y80.638 E1.8000
G1 X133.076 Y81.937 E1.8481
G1 X134.209 Y83.041 E1.8733
G1 X134.930 Y84.456 E1.8985
G1 X135.193 Y85.512 E1.9158
G1 X135.291 Y90.723 E1.9988
G1 X137.503 Y99.742 E2.1466
G1 X137.541 Y99.927 E2.1496
G1 X137.625 Y100.440 E2.1578
G1 X137.656 Y100.804 E2.1636
G1 X137.662 Y101.434 E2.1737
G1 X139.168 Y110.751 E2.3238
G1 X141.811 Y118.591 E2.4555
G1 X141.930 Y119.561 E2.4710
G1 X141.802 Y121.119 E2.4959
G1 X141.363 Y122.327 E2.5164
G1 X140.786 Y123.144 E2.5323
G1 X140.735 Y123.214 E2.5337
G1 X135.082 Y130.624 E2.6820
G1 X134.175 Y131.353 E2.7005
G1 X127.248 Y134.574 E2.8220
G1 X126.493 Y134.785 E2.8345
G1 X125.455 Y134.898 E2.8511
G1 X124.772 Y134.875 E2.8620
G1 X116.185 Y133.342 E3.0008
G1 X115.104 Y132.855 E3.0197
G1 X111.457 Y129.968 E3.0937
G1 X107.781 Y130.304 E3.1524
G1 X107.140 Y130.511 E3.1631
G1 X106.116 Y130.611 E3.1795
G1 X104.112 Y130.378 E3.2116
G1 X87.860 Y129.191 E3.4709
G1 X87.269 Y129.072 E3.4805
G1 X76.087 Y125.313 E3.6682
G1 X75.562 Y125.179 E3.6768
G1 X75.513 Y125.168 E3.6776
G1 X71.483 Y124.961 E3.7418
G1 X65.636 Y125.541 E3.8353
G1 X61.613 Y127.322 E3.9053
G1 X61.129 Y127.478 E3.9134
G1 X54.352 Y128.886 E4.0235
G1 X53.896 Y128.936 E4.0308
G1 X53.725 Y128.938 E4.0336
G1 X51.412 Y129.647 E4.0721
G1 X50.581 Y129.750 E4.0854
G1 X45.326 Y129.481 E4.1691
G1 X44.617 Y129.336 E4.1806
G1 X43.584 Y128.955 E4.1981
G1 X43.024 Y128.661 E4.2082
G1 X39.231 Y125.972 E4.2822
G1 X34.475 Y123.063 E4.3709
G1 X33.254 Y120.912 E4.4103
G1 X33.194 Y115.206 E4.5011
G1 X33.712 Y113.669 E4.5269
G1 X37.679 Y108.564 E4.6297
G1 X38.198 Y108.071 E4.6411
G1 X39.122 Y107.423 E4.6591
G1 X41.234 Y105.522 E4.7043
G1 X38.169 Y98.985 E4.8192
G1 X38.084 Y98.780 E4.8227
G1 X37.514 Y97.201 E4.8494
G1 X37.880 Y94.798 E4.8881
G1 X42.943 Y88.115 E5.0215
G1 X44.847 Y87.121 E5.0557
G92 E0.0000
G1 E-5.0000 F2100
G1 X44.931 Y87.433 F6000
G1 E0.0000 F2100
G92 E0.0000
G1 X47.197 Y87.343 E0.0361 F1470
G1 X48.284 Y87.572 E0.0538
G1 X57.731 Y92.193 E0.2211
G1 X57.789 Y92.220 E0.2221
G1 X58.044 Y92.282 E0.2263
G1 X58.862 Y92.666 E0.2407
G1 X63.484 Y96.112 E0.3324
G1 X67.775 Y99.132 E0.4159
G1 X70.643 Y98.481 E0.4627
G1 X74.239 Y96.733 E0.5263
G1 X75.156 Y96.506 E0.5414
G1 X78.328 Y96.405 E0.5919
G1 X83.614 Y93.604 E0.6870
G1 X83.819 Y93.073 E0.6961
G1 X80.526 Y86.693 E0.8103
G1 X80.477 Y86.590 E0.8122
G1 X79.587 Y84.627 E0.8465
G1 X80.016 Y81.966 E0.8893
G1 X84.854 Y76.724 E1.0028
G1 X85.234 Y76.396 E1.0108
G1 X86.483 Y75.538 E1.0349
G1 X86.867 Y75.326 E1.0419
G1 X95.436 Y71.650 E1.1903
G1 X95.970 Y71.495 E1.1991
G1 X96.889 Y71.350 E1.2139
G1 X97.528 Y71.340 E1.2241
G1 X103.312 Y72.085 E1.3169
G1 X104.010 Y72.294 E1.3285
G1 X110.820 Y75.608 E1.4490
G1 X111.932 Y76.775 E1.4746
G1 X111.963 Y76.849 E1.4759
G1 X114.457 Y78.856 E1.5269
G1 X114.882 Y79.027 E1.5341
G1 X115.498 Y79.400 E1.5456
G1 X117.687 Y81.262 E1.5913
G1 X122.181 Y81.334 E1.6628
G1 X122.692 Y81.329 E1.6710
G1 X127.470 Y79.984 E1.7500
G1 X129.645 Y80.456 E1.7854
G1 X130.177 Y80.905 E1.7965
G1 X132.893 Y82.199 E1.8443
G1 X133.952 Y83.230 E1.8678
G1 X134.633 Y84.567 E1.8917
G1 X134.879 Y85.553 E1.9079
G1 X134.977 Y90.764 E1.9908
G1 X137.196 Y99.811 E2.1390
G1 X137.231 Y99.984 E2.1418
G1 X137.312 Y100.479 E2.1498
G1 X137.341 Y100.819 E2.1553
G1 X137.347 Y101.460 E2.1655
G1 X138.861 Y110.827 E2.3164
G1 X141.502 Y118.661 E2.4480
G1 X141.613 Y119.567 E2.4625
G1 X141.492 Y121.051 E2.4862
G1 X141.082 Y122.180 E2.5053
G1 X140.531 Y122.960 E2.5205
G1 X140.482 Y123.025 E2.5218
G1 X134.855 Y130.402 E2.6694
G1 X134.008 Y131.083 E2.6867
G1 X127.138 Y134.278 E2.8073
G1 X126.433 Y134.475 E2.8189
G1 X125.444 Y134.582 E2.8348
G1 X124.805 Y134.561 E2.8449
G1 X116.279 Y133.039 E2.9827
G1 X115.269 Y132.584 E3.0004
G1 X111.553 Y129.643 E3.0758
G1 X107.717 Y129.994 E3.1371
G1 X107.075 Y130.201 E3.1478
G1 X106.119 Y130.295 E3.1631
G1 X104.142 Y130.064 E3.1948
G1 X87.903 Y128.878 E3.4538
G1 X87.351 Y128.767 E3.4628
G1 X76.177 Y125.011 E3.6504
G1 X75.636 Y124.873 E3.6593
G1 X75.556 Y124.854 E3.6606
G1 X71.476 Y124.645 E3.7256
G1 X65.555 Y125.232 E3.8203
G1 X61.501 Y127.028 E3.8908
G1 X61.049 Y127.173 E3.8984
G1 X54.303 Y128.574 E4.0080
G1 X53.877 Y128.621 E4.0148
G1 X53.676 Y128.624 E4.0180
G1 X51.346 Y129.338 E4.0568
G1 X50.570 Y129.434 E4.0692
G1 X45.365 Y129.167 E4.1521
G1 X44.704 Y129.032 E4.1629
G1 X43.712 Y128.667 E4.1797
G1 X43.189 Y128.392 E4.1891
G1 X39.404 Y125.709 E4.2629
G1 X34.709 Y122.837 E4.3505
G1 X33.568 Y120.827 E4.3873
G1 X33.509 Y115.256 E4.4759
G1 X33.993 Y113.820 E4.5001
G1 X37.914 Y108.776 E4.6017
G1 X38.398 Y108.315 E4.6123
G1 X39.319 Y107.670 E4.6302
G1 X41.618 Y105.600 E4.6795
G1 X38.457 Y98.857 E4.7980
G1 X38.378 Y98.667 E4.8012
G1 X37.838 Y97.169 E4.8266
G1 X38.180 Y94.924 E4.8627
G1 X43.151 Y88.362 E4.9937
G1 X44.931 Y87.433 E5.0256
G92 E0.0000
G1 E-5.0000 F2100
G1 X45.014 Y87.745 F6000
G1 E0.0000 F2100
G92 E0.0000
G1 X47.170 Y87.659 E0.0343 F1470
G1 X48.181 Y87.872 E0.0508
G1 X57.594 Y92.476 E0.2175
G1 X57.683 Y92.519 E0.2191
G1 X57.939 Y92.581 E0.2233
G1 X58.699 Y92.938 E0.2366
G1 X63.299 Y96.367 E0.3279
G1 X67.709 Y99.471 E0.4137
G1 X70.748 Y98.780 E0.4633
G1 X74.347 Y97.031 E0.5270
G1 X75.199 Y96.820 E0.5410
G1 X78.411 Y96.718 E0.5921
G1 X83.865 Y93.827 E0.6903
G1 X84.164 Y93.055 E0.7035
G1 X80.808 Y86.552 E0.8199
G1 X80.762 Y86.457 E0.8216
G1 X79.913 Y84.583 E0.8543
G1 X80.312 Y82.110 E0.8942
G1 X85.074 Y76.950 E1.0059
G1 X85.426 Y76.645 E1.0133
G1 X86.648 Y75.807 E1.0369
G1 X87.006 Y75.610 E1.0434
G1 X95.543 Y71.947 E1.1912
G1 X96.038 Y71.803 E1.1994
G1 X96.916 Y71.664 E1.2136
G1 X97.510 Y71.656 E1.2230
G1 X103.246 Y72.394 E1.3151
G1 X103.895 Y72.588 E1.3258
G1 X110.631 Y75.867 E1.4450
G1 X111.664 Y76.952 E1.4689
G1 X111.704 Y77.045 E1.4705
G1 X114.295 Y79.130 E1.5234
G1 X114.740 Y79.310 E1.5311
G1 X115.314 Y79.657 E1.5417
G1 X117.569 Y81.575 E1.5888
G1 X122.180 Y81.649 E1.6622
G1 X122.737 Y81.644 E1.6711
G1 X127.480 Y80.309 E1.7495
G1 X129.502 Y80.747 E1.7824
G1 X130.005 Y81.172 E1.7929
